src/assets/images/dropdown-toggle.svg

<svg width="32" height="22" viewBox="0 0 32 22" fill="none" xmlns="http://www.w3.org/2000/svg">
<rect x="0.145264" y="0.00012207" width="21.4395" height="2.68125" rx="1.34062" fill="#999999"></rect>
<rect x="0.145264" y="7.41272" width="21.4395" height="2.68125" rx="1.34062" fill="#999999"></rect>
<rect x="0.145264" y="14.8258" width="16.4914" height="2.68125" rx="1.34062" fill="#999999"></rect>
<path d="M19.8784 16.0712C19.8784 15.4163 20.4093 14.8854 21.0642 14.8854H30.2463C30.9011 14.8854 31.432 15.4163 31.432 16.0712C31.432 16.7261 30.9011 17.257 30.2463 17.257H21.0642C20.4093 17.257 19.8784 16.7261 19.8784 16.0712Z" fill="#999999"></path>
<path d="M25.6552 22.0001C25.0171 22.0001 24.4999 21.4828 24.4999 20.8447V11.2977C24.4999 10.6596 25.0171 10.1423 25.6552 10.1423C26.2933 10.1423 26.8106 10.6596 26.8106 11.2977V20.8447C26.8106 21.4828 26.2933 22.0001 25.6552 22.0001Z" fill="#999999"></path>
</svg>

<svg width="32" height="22" fill="none" xmlns="http://www.w3.org/2000/svg"><rect x=".145" width="21.439" height="2.681" rx="1.341" fill="#999"/><rect x=".145" y="7.413" width="21.439" height="2.681" rx="1.341" fill="#999"/><rect x=".145" y="14.826" width="16.491" height="2.681" rx="1.341" fill="#999"/><path d="M19.878 16.071c0-.655.531-1.186 1.186-1.186h9.182a1.186 1.186 0 010 2.372h-9.182c-.655 0-1.186-.53-1.186-1.186z" fill="#999"/><path d="M25.655 22a1.155 1.155 0 01-1.155-1.155v-9.547a1.155 1.155 0 112.31 0v9.547c0 .638-.517 1.155-1.155 1.155z" fill="#999"/></svg>
